!!!!SEGMENT: pl-lzu--m-15111--001-005_noskowski-zygmunt--spiewnik-dla-dzieci-op-34-5-rzeka.krn
!!!cenid: 18xx:4702
!!!COM: Noskowski, Zygmunt
!!!COM-rismID: pe106604
!!!CDT: 1846/05/02-1909/07/23
!!!CNT: Polish
!!!GTL: Śpiewnik dla dzieci, op. 34
!!!OTL: 5. Rzeka
!!!OMV: 005
!!!PDT: 1890
!!!AGN: Secular; Song; Children
!!!YEC: Copyright 2022 Narodowy Instytut Fryderyka Chopina (https://polishscores.org)
!!!YEM: License CC-BY-4.0 (https://creativecommons.org/licenses/by/4.0)
!!!SMS-siglum: PL-LŹu
!!!SMS-shelfmark: M 15111
!!!SMS-variant:
!!!SMS-altvar:
!!!SMS-shelfwork: 001-005 G
!!!NIFC-rismSourceID: 1001234040
!!!NIFC-rismChildID: 1001234040
!!!NIFC-islandoraID: pl-lzu:5455
!!!URL-pdf-islandora: https://repozytorium.nifc.pl/islandora/object/pl-lzu%3A5455/datastream/PDF/view
!!!URL-scan: https://polish.musicsources.pl/pl/lokalizacje/galeria/druki-muzyczne/23228/11 @EN{Scan on Polish Music Sources Website} @PL{Skany w portalu Dziedzictwo Muzyki Polskiej w otwartym dostępie}
!!!IIIF:
!!!ONB-nifc:
!!!AIN: 1 piano 1 vox
!!!key: A-
!!!OMD: Poco allegro.
**kern	**kern	**dynam	**kern	**text	**text	**text	**dynam
*part2	*part2	*part2	*part1	*part1	*part1	*part1	*part1
*staff3	*staff2	*staff2/3	*staff1	*staff1	*staff1	*staff1	*staff1
*I"[Piano]	*I"[Piano]	*	*I"[Voice]	*	*	*	*
*I'pf	*I'pf	*	*I'V	*	*	*	*
*Ipiano	*Ipiano	*	*Ivox	*	*	*	*
*ICklav	*ICklav	*	*ICvox	*	*	*	*
*IGacmp	*IGacmp	*	*IGsolo	*	*	*	*
*>[A,A,A]	*>[A,A,A]	*>[A,A,A]	*>[A,A,A]	*>[A,A,A]	*>[A,A,A]	*>[A,A,A]	*>[A,A,A]
*>A	*>A	*>A	*>A	*>A	*>A	*>A	*>A
*clefF4	*clefG2	*	*clefG2	*	*	*	*
*k[b-e-a-d-]	*k[b-e-a-d-]	*	*k[b-e-a-d-]	*	*	*	*
*A-:	*A-:	*	*A-:	*	*	*	*
*M3/4	*M3/4	*	*M3/4	*	*	*	*
=1	=1	=1	=1	=1	=1	=1	=1
*	*	*	*	*v:1	*v:2	*v:3	*
!	!LO:TX:a:i:t=Trochę żywo.	!	!	!	!	!	!
8.E-L 8.AA-/	8.e-L 8.c/	mf	8.e- 8.c/	Za	Oj,	Nie	f
16E-Jk 16AA-/	16fJk 16c/	.	16f 16c/	tą	ty	na	.
4E- 4AA-/	4e- 4c/	.	4e- 4c/	głę-	rze-	za-	.
4E- 4AA-^/	4a- 4c^/	.	4a- 4c^>/	-bią,	-ko,	-wsze	.
=2	=2	=2	=2	=2	=2	=2	=2
8.FL 8.AA-/	8.fL 8.d-/	.	8.f 8.d-/	za	oj,	słon-	.
16FJk 16AA-/	16gJk 16d-/	.	16g 16d-/	tym	ty	-ko	.
4F 4AA-/	4f 4d-/	.	4f 4d-/	bro-	si-	ga-	.
4F 4AA-^/	4a- 4d-^/	<	4a- 4d-^>,/	-dem,	-na,	-śnie,	.
=3	=3	=3	=3	=3	=3	=3	=3
8.E-L 8.AA-/	8.gL 8.d-/	.	8.g 8.d-/	Tam	Lo-	Nie	.
16E-Jk 16AA-/	16b-Jk 16e-/	.	16b- 16e-/	sta-	-dy	na	.
2E- 2AA-^/	4.ee- 4.g^<\	.	4.ee- 4.g^>/	-nę-	to-	za-	.
.	.	[	.	.	.	.	.
.	8dd- 8e-/	.	8dd- 8f/	-ła	-bie	-wsze	.
=4	=4	=4	=4	=4	=4	=4	=4
8.E-L 8.AA-/	8.ccL 8.e-/	.	8.cc 8.e-/	rze-	nie	zie-	.
16E-Jk 16AA-/	16b-Jk 16d-/	.	16b- 16d-/	-ka	no-	-mia	.
4E- 4AA-/	4cc 4e-/	.	4cc 4e-/	lo-	-wi-	za-	.
4E- 4AA-/	4a- 4c/	.	4a- 4c/	-dem,	-na,	-śnie,	.
!!LO:PB:g=original
=5	=5	=5	=5	=5	=5	=5	=5
*	*	*	*	*v:1	*v:2	*v:3	*
8.EnL 8.C\	8.gL 8.c/	.	8.g 8.c/	A-	Co	Nie	.
16EJk 16C\	16a-Jk 16c/	.	16a- 16c/	-ni	rok	na	.
4E 4C\	4g 4c/	.	4g 4c/	szu-	zi-	za-	.
4G 4C\	4cc 4en/	.	4cc 4en/	-mi,	-ma	-wsze	.
=6	=6	=6	=6	=6	=6	=6	=6
2F\	8.a-L 8.f/	.	8.a- 8.f/	a-	wię-	wię-	.
.	16b-Jk 16g/	.	16b- 16g/	-ni	-zi	-dnie	.
.	4a- 4f/	.	4a- 4f/	pły-	cie-	kwie-	.
4F 4FF/	4cc 4a-\	.	4cc 4a-,\	-nie,	-bie,	-cie,	.
=7	=7	=7	=7	=7	=7	=7	=7
!	!LO:TX:b:i:t=rallentando	!	!LO:TX:a:i:t=zwalniać	!	!	!	!
8EnL 8EEn/	8dd-L 8b-\	.	8dd- 8b-\	Tyl-	Co	Nie	.
8FJ 8FF/	8ccJ 8a-\	.	8cc 8a-/	-ko	rok	na	.
8GL 8GG\	8b-L 8g/	>	8b- 8g/	du-	wich-	zaw-	>
8A- 8AA-\	8a- 8f/	.	8a- 8f/	-ma	-ry	-sze	.
8B- 8BB-\	8g 8en/	.	8g 8en/	w swej	mkną	mróz	.
8BnJ 8BBn\	8fJ 8dn/	]	8f 8dn/	głę-	po	na	]
=8	=8	=8	=8	=8	=8	=8	=8
2c 2C\	4a- 4f/	.	4a- 4f/	-bi-	nie-	świe-	.
.	4g 4en/	.	4g 4en/	-nie:	-bie.	-cie.	.
4r	4r	.	4r	.	.	.	.
!!LO:LB:g=original
=9	=9	=9	=9	=9	=9	=9	=9
*	*	*	*	*v:1	*v:2	*v:3	*
!	!LO:TX:a:i:t=Trochę wolniej	!	!LO:TX:a:i:t=Poco piu tranquillo.	!	!	!	!
4r	8gL 8en/	p	8g 8en/	Gdzie	Aż	Przyj-	p
.	8a-J 8f/	.	8a- 8f/	jej	znów	-dzie	.
4c 4C\	4b- 4g/	.	4b- 4g/	wio-	przyj-	wio-	.
4c 4C\	4b- 4g/	.	4b- 4g/	-sna,	-dzie	-sna,	.
=10	=10	=10	=10	=10	=10	=10	=10
4r	8a-L 8f/	.	8a- 8f/	gdzie	wio-	przyj-	.
.	8gJ 8en/	.	8g 8en/	jej	-sna	-dzie	.
4c 4F\	8a-L 8f/	.	(8a-L 8f/	zo-	ho-	ho-	.
.	8b-J 8g/	.	8b-J 8g/)	.	.	.	.
4c 4F\	4cc 4a-\	.	4cc 4a-\	-rza,	-ża,	-ża,	.
=11	=11	=11	=11	=11	=11	=11	=11
4r	8b-L 8g/	.	8b- 8g/	Gdzie	I	Pój-	.
.	8ccJ 8a-/	.	8cc 8a-/	jej	po-	-dą	.
4c 4En\	4dd- 4b-\	.	4dd- 4b-\	dro-	-pły-	rze-	.
4c 4E\	4dd- 4b-\	.	4dd- 4b-\	-ga	-niesz	-ki	.
=12	=12	=12	=12	=12	=12	=12	=12
*	*	*	*^	*	*	*	*
4r	8ccL 8a-/	.	8cc 8a-/	2ryy	het	het	het	.
.	8b- 8g/	.	8b- 8g/	.	do	do	do	.
8cL 8F\	8a- 8f/	.	(8a-L 8f/	.	mo-	mo-	mo-	.
8B-\J	8gJ 8en/	.	8gJ 8en/)	.	.	.	.	.
4A- 4F\	4f/	.	4f,/	4f\	-rza?	-rza!	-rza!	.
*	*	*	*v	*v	*	*	*	*
!!LO:LB:g=original
=13	=13	=13	=13	=13	=13	=13	=13
*	*	*	*	*v:1	*v:2	*v:3	*
4r	8gL 8e-X/	mf	8g 8e-X/	Gdzie	Aż	Przyj-	mf
.	8a- 8f/	.	8a- 8f/	jej	znów	-dzie	.
4d- 4E-\	8b- 8g/	.	8b- 8g/	wio-	przyj-	wio-	.
.	8b-J 8g/	<	8b- 8g/	-sna,	-dzie	-sna,	.
8c\L	8ccL 8a-\	.	8cc 8a-\	gdzie	wio-	przyj-	.
8B-\J	8dd-J 8b-\	[	8dd- 8b-\	jej	-sna	-dzie	.
=14	=14	=14	=14	=14	=14	=14	=14
4A-\	2ee- 2cc\	.	2ee- 2cc\	zo-	ho-	ho-	.
4AA-/	.	.	.	.	.	.	.
4r	4cc 4a-\	.	4cc 4a-,/	-rza,	-ża,	-ża,	.
=15	=15	=15	=15	=15	=15	=15	=15
4A- 4D-\	8b-L 8f/	.	8b- 8f/	Gdzie	I	Pój-	.
.	8ccJ 8f/	.	8cc 8f/	jej	po-	-dą	.
4A- 4BB-\	8dd-L 8f/	.	8dd- 8f/	dro-	-pły-	rze-	.
.	8cc 8e-/	>	8cc 8e-/	-ga,	-niesz	-ki	.
.	.	.	.	.	.	.	>
4G 4E-\	8b- 8d-/	.	8b- 8d-/	het	het	het	.
.	8gJ 8e-/	.	8g 8e-/	do	do	do	]]
=16	=16	=16	=16	=16	=16	=16	=16
*^	*	*	*	*	*	*	*
8G/L	4AA-\	4a- 4d-/	.	4b- 4d-/	mo-	mo-	mo-	.
8E-/J	.	.	]	.	.	.	.	.
4A- 4AA-\	2ryy	4a- 4c/	.	4a- 4c/	-rza?	-rza!	-rza!	.
4r	.	4r	.	4r	.	.	.	.
*v	*v	*	*	*	*	*	*	*
=:|!	=:|!	=:|!	=:|!	=:|!	=:|!	=:|!	=:|!
*-	*-	*-	*-	*-	*-	*-	*-
!!!system-decoration: p1{p2}
!!!RDF**kern: > = above
!!!RDF**kern: < = below
!!!ENC: Andrzej Gręziak
!!!END: 2025-03-04
!!!ENC: Marta Lawrence
!!!END: 2025-03-20
